**harm	**harte	**silbe	**silbe	**rhyme	**timestamp	**phrase	**leadinstrument	**kern
*M4/4	*M4/4	*	*	*	*	*	*	*
*	*	*	*	*	*	*	*	*
*	*	*	*	*	*	*	*	*
*C:	*C:	*	*	*	*	*	*	*C:
*	*	*	*	*	*	*	*	*
*	*	*	*	*	*	*	*	*
1r;	N	.	.	.	0	.	r	1r;
=1	=1	=1	=1	=1	=1	=1	=1	=1
*>Letter>A	*>Letter>A	*>Letter>A	*>Letter>A	*>Letter>A	*>Letter>A	*>Letter>A	*>Letter>A	*>Letter>A
*>Label>Intro	*>Label>Intro	*>Label>Intro	*>Label>Intro	*>Label>Intro	*>Label>Intro	*>Label>Intro	*>Label>Intro	*>Label>Intro
1r	N	.	.	.	0.395	newline	drums	1r
=2	=2	=2	=2	=2	=2	=2	=2	=2
1r	N	.	.	.	2.506	.	drums	1r
.	.	.	.	.	.	.	.	.
.	.	.	A-	.	.	.	.	.
=3	=3	=3	=3	=3	=3	=3	=3	=3
1r	N	.	-ru-	.	4.617	newline	voice	1r
.	.	.	-ba,	a	.	.	.	.
.	.	.	.	.	.	.	.	.
.	.	.	Ja-	.	.	.	.	.
.	.	.	-mai-	(A	.	.	.	.
.	.	.	-ca,	a)	.	.	.	.
.	.	.	.	.	.	.	.	.
.	.	.	ooh	.	.	.	.	.
=4	=4	=4	=4	=4	=4	=4	=4	=4
1r	N	.	_	.	6.69	.	voice	1r
.	.	.	I	.	.	.	.	.
.	.	.	want	.	.	.	.	.
.	.	.	to	.	.	.	.	.
.	.	.	take	(A	.	.	.	.
.	.	.	ya	a)	.	.	.	.
.	.	.	.	.	.	.	.	.
.	.	.	Ber-	.	.	.	.	.
=5	=5	=5	=5	=5	=5	=5	=5	=5
1r	N	.	-mu-	.	8.762	newline	voice	1r
.	.	.	-da,	a	.	.	.	.
.	.	.	.	.	.	.	.	.
.	.	.	Ba-	.	.	.	.	.
.	.	.	-ha-	(B	.	.	.	.
.	.	.	-ma,	b)	.	.	.	.
.	.	.	.	.	.	.	.	.
.	.	.	come	.	.	.	.	.
=6	=6	=6	=6	=6	=6	=6	=6	=6
1r	N	.	_	.	10.822	.	voice	1r
.	.	.	on	.	.	.	.	.
.	.	.	pret-	.	.	.	.	.
.	.	.	-ty	.	.	.	.	.
.	.	.	ma-	(B	.	.	.	.
.	.	.	-ma	b)	.	.	.	.
.	.	.	.	.	.	.	.	.
.	.	.	Key	.	.	.	.	.
=7	=7	=7	=7	=7	=7	=7	=7	=7
1r	N	.	Lar-	.	12.882	newline	voice	1r
.	.	.	-go,	c	.	.	.	.
.	.	.	.	.	.	.	.	.
.	.	.	Mon-	.	.	.	.	.
.	.	.	-te-	(C	.	.	.	.
.	.	.	-go,	c)	.	.	.	.
.	.	.	.	.	.	.	.	.
.	.	.	ba-	.	.	.	.	.
=8	=8	=8	=8	=8	=8	=8	=8	=8
1r	N	.	_	.	14.957	.	voice	1r
.	.	.	-by	.	.	.	.	.
.	.	.	why	.	.	.	.	.
.	.	.	don't	.	.	.	.	.
.	.	.	we	(C	.	.	.	.
.	.	.	go,	c)	.	.	.	.
.	.	.	.	.	.	.	.	.
.	.	.	Ja-	.	.	.	.	.
=9	=9	=9	=9	=9	=9	=9	=9	=9
1r	N	.	-mai-	.	17.032	.	voice	1r
.	.	.	-ca	.	.	.	.	.
.	.	Off	.	.	.	.	.	.
.	.	the	.	.	.	.	.	.
.	.	Flo-	.	.	.	.	.	.
.	.	-ri-	.	.	.	.	.	.
.	.	-da	.	.	.	.	.	.
.	.	Keys	.	.	.	.	.	.
=10	=10	=10	=10	=10	=10	=10	=10	=10
*>Letter>B	*>Letter>B	*>Letter>B	*>Letter>B	*>Letter>B	*>Letter>B	*>Letter>B	*>Letter>B	*>Letter>B
*>Label>Verse	*>Label>Verse	*>Label>Verse	*>Label>Verse	*>Label>Verse	*>Label>Verse	*>Label>Verse	*>Label>Verse	*>Label>Verse
1I	C:maj	_	.	.	19.107	newline	voice	1C 1e 1g
.	.	_	.	.	.	.	.	.
.	.	_	.	.	.	.	.	.
=11	=11	=11	=11	=11	=11	=11	=11	=11
1I7	C:maj7	_	.	.	21.187	.	voice	1C 1e 1g 1b
.	.	.	.	.	.	.	.	.
=12	=12	=12	=12	=12	=12	=12	=12	=12
1v7	G:min7	.	.	.	23.266	.	voice	1G 1b- 1dd 1ff
.	.	there's	.	.	.	.	.	.
.	.	a	.	.	.	.	.	.
.	.	place	.	.	.	.	.	.
.	.	called	.	.	.	.	.	.
=13	=13	=13	=13	=13	=13	=13	=13	=13
1IV	F:maj	Kok-	.	(D	25.346	.	voice	1F 1a 1cc
.	.	-o-	.	d	.	.	.	.
.	.	-mo	.	D)	.	.	.	.
.	.	_	.	.	.	.	.	.
=14	=14	=14	=14	=14	=14	=14	=14	=14
1iv	F:min	.	.	.	27.426	newline	voice	1F 1a- 1cc
.	.	That's	.	.	.	.	.	.
.	.	where	.	.	.	.	.	.
.	.	you	.	.	.	.	.	.
=15	=15	=15	=15	=15	=15	=15	=15	=15
1I	C:maj	want	.	.	29.505	.	voice	1C 1e 1g
.	.	to	.	.	.	.	.	.
.	.	go	.	D	.	.	.	.
.	.	.	.	.	.	.	.	.
.	.	to	.	.	.	.	.	.
.	.	get	.	.	.	.	.	.
.	.	a-	.	.	.	.	.	.
=16	=16	=16	=16	=16	=16	=16	=16	=16
1II7	D:7	-way	.	.	31.584	.	voice	1D 1f# 1a 1cc
.	.	from	.	.	.	.	.	.
.	.	it	.	.	.	.	.	.
.	.	all	.	.	.	.	.	.
.	.	_	.	.	.	.	.	.
.	.	.	.	.	.	.	.	.
=17	=17	=17	=17	=17	=17	=17	=17	=17
1V7	G:7	.	.	.	33.663	.	voice	1G 1b 1dd 1ff
=18	=18	=18	=18	=18	=18	=18	=18	=18
1I	C:maj	.	.	.	35.743	newline	voice	1C 1e 1g
.	.	Bo-	.	.	.	.	.	.
.	.	-dies	.	.	.	.	.	.
.	.	in	.	.	.	.	.	.
.	.	the	.	.	.	.	.	.
.	.	sand,	.	E	.	.	.	.
=19	=19	=19	=19	=19	=19	=19	=19	=19
1I7	C:maj7	_	.	.	37.805	.	voice	1C 1e 1g 1b
.	.	.	.	.	.	.	.	.
=20	=20	=20	=20	=20	=20	=20	=20	=20
1v7	G:min7	.	.	.	39.868	.	voice	1G 1b- 1dd 1ff
.	.	tro-	.	.	.	.	.	.
.	.	-pi-	.	.	.	.	.	.
.	.	-cal	.	.	.	.	.	.
.	.	drink	.	.	.	.	.	.
.	.	mel-	.	.	.	.	.	.
.	.	-ting	.	.	.	.	.	.
=21	=21	=21	=21	=21	=21	=21	=21	=21
1IV	F:maj	in	.	.	41.931	.	voice	1F 1a 1cc
.	.	your	.	.	.	.	.	.
.	.	hand	.	E	.	.	.	.
.	.	_	.	.	.	.	.	.
.	.	.	.	.	.	.	.	.
=22	=22	=22	=22	=22	=22	=22	=22	=22
1iv	F:min	.	.	.	43.994	newline	voice	1F 1a- 1cc
.	.	We'll	.	.	.	.	.	.
.	.	be	.	.	.	.	.	.
.	.	fal-	.	.	.	.	.	.
.	.	-ling	.	.	.	.	.	.
.	.	in	.	.	.	.	.	.
.	.	love	.	.	.	.	.	.
=23	=23	=23	=23	=23	=23	=23	=23	=23
1I	C:maj	_	.	.	46.063	.	voice	1C 1e 1g
.	.	.	.	.	.	.	.	.
.	.	to	.	.	.	.	.	.
.	.	the	.	.	.	.	.	.
.	.	rhy-	.	.	.	.	.	.
.	.	-thm	.	.	.	.	.	.
.	.	of	.	.	.	.	.	.
.	.	a	.	.	.	.	.	.
=24	=24	=24	=24	=24	=24	=24	=24	=24
1II7	D:7	steel	.	.	48.133	.	voice	1D 1f# 1a 1cc
.	.	drum	.	.	.	.	.	.
.	.	band	.	E	.	.	.	.
.	.	_	.	.	.	.	.	.
.	.	.	.	.	.	.	.	.
=25	=25	=25	=25	=25	=25	=25	=25	=25
1V7	G:7	.	.	.	50.203	.	voice	1G 1b 1dd 1ff
.	.	Down	.	.	.	.	.	.
.	.	in	.	.	.	.	.	.
.	.	Ko	.	(D	.	.	.	.
.	.	_	.	.	.	.	.	.
.	.	ko-	.	d	.	.	.	.
.	.	-mo	A-	D)	.	.	.	.
=26	=26	=26	=26	=26	=26	=26	=26	=26
*>Letter>C	*>Letter>C	*>Letter>C	*>Letter>C	*>Letter>C	*>Letter>C	*>Letter>C	*>Letter>C	*>Letter>C
*>Label>Chorus	*>Label>Chorus	*>Label>Chorus	*>Label>Chorus	*>Label>Chorus	*>Label>Chorus	*>Label>Chorus	*>Label>Chorus	*>Label>Chorus
1I	C:maj	_	-ru-	.	52.273	newline	voice	1C 1e 1g
.	.	.	-ba,	a	.	.	.	.
.	.	.	.	.	.	.	.	.
.	.	.	Ja-	.	.	.	.	.
.	.	.	-mai-	(A	.	.	.	.
.	.	.	-ca,	a)	.	.	.	.
.	.	.	.	.	.	.	.	.
.	.	.	ooh	.	.	.	.	.
=27	=27	=27	=27	=27	=27	=27	=27	=27
1I	C:maj	.	_	.	54.347	.	voice	1C 1e 1g
.	.	.	I	.	.	.	.	.
.	.	.	want	.	.	.	.	.
.	.	.	to	.	.	.	.	.
.	.	.	take	(A	.	.	.	.
.	.	.	ya	a)	.	.	.	.
.	.	.	.	.	.	.	.	.
.	.	.	Ber-	.	.	.	.	.
=28	=28	=28	=28	=28	=28	=28	=28	=28
1IV	F:maj	.	-mu-	.	56.421	.	voice	1F 1a 1cc
.	.	.	-da,	a	.	.	.	.
.	.	.	.	.	.	.	.	.
.	.	.	Ba-	.	.	.	.	.
.	.	.	-ha-	(B	.	.	.	.
.	.	.	-ma,	b)	.	.	.	.
.	.	.	.	.	.	.	.	.
.	.	.	come	.	.	.	.	.
=29	=29	=29	=29	=29	=29	=29	=29	=29
1IV	F:maj	.	_	.	58.496	.	voice	1F 1a 1cc
.	.	.	on	.	.	.	.	.
.	.	.	pret-	.	.	.	.	.
.	.	.	-ty	.	.	.	.	.
.	.	.	ma-	(B	.	.	.	.
.	.	.	-ma	b)	.	.	.	.
.	.	.	.	.	.	.	.	.
.	.	.	Key	.	.	.	.	.
=30	=30	=30	=30	=30	=30	=30	=30	=30
1I	C:maj	.	Lar-	.	60.57	newline	voice	1C 1e 1g
.	.	.	-go,	c	.	.	.	.
.	.	.	.	.	.	.	.	.
.	.	.	Mon-	.	.	.	.	.
.	.	.	-te-	(C	.	.	.	.
.	.	.	-go,	c)	.	.	.	.
.	.	Ooh	.	.	.	.	.	.
.	.	.	ba-	.	.	.	.	.
=31	=31	=31	=31	=31	=31	=31	=31	=31
1I	C:maj	_	_	.	62.641	.	voice	1C 1e 1g
.	.	I	-by	.	.	.	.	.
.	.	want	why	.	.	.	.	.
.	.	to	don't	.	.	.	.	.
.	.	take	we	(C	.	.	.	.
.	.	you	go,	c)	.	.	.	.
.	.	down	.	.	.	.	.	.
.	.	to	.	.	.	.	.	.
=32	=32	=32	=32	=32	=32	=32	=32	=32
1IV	F:maj	Ko-	.	(C	64.712	.	voice	1F 1a 1cc
.	.	-ko	.	c	.	.	.	.
.	.	_	.	C)	.	.	.	.
.	.	mo	.	.	.	.	.	.
.	.	_	.	.	.	.	.	.
.	.	.	.	.	.	.	.	.
.	.	.	.	.	.	.	.	.
.	.	we'll	.	.	.	.	.	.
=33	=33	=33	=33	=33	=33	=33	=33	=33
1iv	F:min	get	.	.	66.782	.	voice	1F 1a- 1cc
.	.	there	.	.	.	.	.	.
.	.	fast	.	.	.	.	.	.
.	.	_	.	.	.	.	.	.
.	.	and	.	.	.	.	.	.
.	.	then	.	.	.	.	.	.
.	.	we'll	.	.	.	.	.	.
=34	=34	=34	=34	=34	=34	=34	=34	=34
1I	C:maj	take	.	.	68.853	newline	voice	1C 1e 1g
.	.	it	.	.	.	.	.	.
.	.	slow	.	C	.	.	.	.
.	.	_	.	.	.	.	.	.
.	.	.	.	.	.	.	.	.
=35	=35	=35	=35	=35	=35	=35	=35	=35
1vi	A:min	That's	.	.	70.932	.	voice	1A 1cc 1ee
.	.	where	.	.	.	.	.	.
.	.	_	.	.	.	.	.	.
.	.	we	.	.	.	.	.	.
.	.	_	.	.	.	.	.	.
=36	=36	=36	=36	=36	=36	=36	=36	=36
1ii	D:min	want	.	.	73.012	.	voice	1D 1f 1a
.	.	_	.	.	.	.	.	.
.	.	to	.	.	.	.	.	.
.	.	go	.	C	.	.	.	.
.	.	_	.	.	.	.	.	.
.	.	_	.	.	.	.	.	.
.	.	.	.	.	.	.	.	.
=37	=37	=37	=37	=37	=37	=37	=37	=37
1V	G:maj	.	.	.	75.091	.	voice	1G 1b 1dd
.	.	way	.	.	.	.	.	.
.	.	down	.	.	.	.	.	.
.	.	in	.	.	.	.	.	.
.	.	Ko-	.	(C	.	.	.	.
.	.	-ko	.	c	.	.	.	.
.	.	_	.	.	.	.	.	.
.	.	mo	The	C)	.	.	.	.
=38	=38	=38	=38	=38	=38	=38	=38	=38
*>Letter>A	*>Letter>A	*>Letter>A	*>Letter>A	*>Letter>A	*>Letter>A	*>Letter>A	*>Letter>A	*>Letter>A
*>Label>Interlude	*>Label>Interlude	*>Label>Interlude	*>Label>Interlude	*>Label>Interlude	*>Label>Interlude	*>Label>Interlude	*>Label>Interlude	*>Label>Interlude
1I	C:maj	_	Mar-	.	77.171	newline	voice	1C 1e 1g
.	.	.	.	.	.	.	.	.
.	.	.	-ti-	.	.	.	.	.
.	.	.	-nique,	F	.	.	.	.
.	.	.	.	.	.	.	.	.
.	.	.	that	.	.	.	.	.
=39	=39	=39	=39	=39	=39	=39	=39	=39
1r	N	.	Mont-	.	79.243	.	voice	1r
.	.	.	-ser-	.	.	.	.	.
.	.	.	-rat	.	.	.	.	.
.	.	.	my-	.	.	.	.	.
.	.	.	-stique	F	.	.	.	.
.	.	.	.	.	.	.	.	.
=40	=40	=40	=40	=40	=40	=40	=40	=40
*>Letter>B	*>Letter>B	*>Letter>B	*>Letter>B	*>Letter>B	*>Letter>B	*>Letter>B	*>Letter>B	*>Letter>B
*>Label>Verse	*>Label>Verse	*>Label>Verse	*>Label>Verse	*>Label>Verse	*>Label>Verse	*>Label>Verse	*>Label>Verse	*>Label>Verse
1I	C:maj	.	.	.	81.314	newline	voice	1C 1e 1g
.	.	We'll	.	.	.	.	.	.
.	.	put	.	.	.	.	.	.
.	.	out	.	.	.	.	.	.
.	.	to	.	.	.	.	.	.
.	.	sea	.	F	.	.	.	.
=41	=41	=41	=41	=41	=41	=41	=41	=41
1I7	C:maj7	_	.	.	83.395	.	voice	1C 1e 1g 1b
.	.	_	.	.	.	.	.	.
.	.	_	.	.	.	.	.	.
=42	=42	=42	=42	=42	=42	=42	=42	=42
1v7	G:min7	.	.	.	85.476	.	voice	1G 1b- 1dd 1ff
.	.	and	.	.	.	.	.	.
.	.	we'll	.	.	.	.	.	.
.	.	per-	.	.	.	.	.	.
.	.	-fect	.	.	.	.	.	.
.	.	our	.	.	.	.	.	.
=43	=43	=43	=43	=43	=43	=43	=43	=43
1IV	F:maj	che-	.	.	87.556	.	voice	1F 1a 1cc
.	.	-mis-	.	.	.	.	.	.
.	.	-try	.	F	.	.	.	.
.	.	_	.	.	.	.	.	.
=44	=44	=44	=44	=44	=44	=44	=44	=44
1iv	F:min	.	.	.	89.637	newline	voice	1F 1a- 1cc
.	.	by	.	.	.	.	.	.
.	.	and	.	.	.	.	.	.
.	.	by	.	.	.	.	.	.
.	.	we'll	.	.	.	.	.	.
.	.	de-	.	.	.	.	.	.
.	.	-fy	.	.	.	.	.	.
=45	=45	=45	=45	=45	=45	=45	=45	=45
1I	C:maj	_	.	.	91.698	.	voice	1C 1e 1g
.	.	.	.	.	.	.	.	.
.	.	a	.	.	.	.	.	.
.	.	lit-	.	.	.	.	.	.
.	.	-tle	.	.	.	.	.	.
.	.	bit	.	.	.	.	.	.
.	.	of	.	.	.	.	.	.
=46	=46	=46	=46	=46	=46	=46	=46	=46
1II7	D:7	gra-	.	.	93.76	.	voice	1D 1f# 1a 1cc
.	.	-vi-	.	.	.	.	.	.
.	.	-ty	.	F	.	.	.	.
.	.	_	.	.	.	.	.	.
.	.	.	.	.	.	.	.	.
=47	=47	=47	=47	=47	=47	=47	=47	=47
1V7	G:7	.	.	.	95.821	.	voice	1G 1b 1dd 1ff
=48	=48	=48	=48	=48	=48	=48	=48	=48
1I	C:maj	.	.	.	97.882	newline	voice	1C 1e 1g
.	.	Af-	.	.	.	.	.	.
.	.	-ter-	.	.	.	.	.	.
.	.	-noon	.	.	.	.	.	.
.	.	de-	.	.	.	.	.	.
.	.	light	.	G	.	.	.	.
=49	=49	=49	=49	=49	=49	=49	=49	=49
1I7	C:maj7	_	.	.	99.958	.	voice	1C 1e 1g 1b
.	.	.	.	.	.	.	.	.
=50	=50	=50	=50	=50	=50	=50	=50	=50
1v7	G:min7	.	.	.	102.034	.	voice	1G 1b- 1dd 1ff
.	.	cock-	.	.	.	.	.	.
.	.	-tails	.	.	.	.	.	.
.	.	and	.	.	.	.	.	.
=51	=51	=51	=51	=51	=51	=51	=51	=51
1IV	F:maj	moon-	.	.	104.11	.	voice	1F 1a 1cc
.	.	-lit	.	.	.	.	.	.
.	.	nights	.	G	.	.	.	.
.	.	_	.	.	.	.	.	.
.	.	.	.	.	.	.	.	.
=52	=52	=52	=52	=52	=52	=52	=52	=52
1iv	F:min	.	.	.	106.186	newline	voice	1F 1a- 1cc
.	.	That	.	.	.	.	.	.
.	.	drea-	.	.	.	.	.	.
.	.	-my	.	.	.	.	.	.
.	.	look	.	.	.	.	.	.
.	.	in	.	.	.	.	.	.
.	.	your	.	.	.	.	.	.
.	.	eye	.	G	.	.	.	.
=53	=53	=53	=53	=53	=53	=53	=53	=53
1I	C:maj	.	.	.	108.254	.	voice	1C 1e 1g
.	.	give	.	.	.	.	.	.
.	.	me	.	.	.	.	.	.
.	.	a	.	.	.	.	.	.
.	.	tro-	.	.	.	.	.	.
.	.	-pi-	.	.	.	.	.	.
.	.	-cal	.	.	.	.	.	.
=54	=54	=54	=54	=54	=54	=54	=54	=54
1II7	D:7	con-	.	.	110.322	.	voice	1D 1f# 1a 1cc
.	.	-tact	.	.	.	.	.	.
.	.	high	.	G	.	.	.	.
=55	=55	=55	=55	=55	=55	=55	=55	=55
1V7	G:7	.	.	.	112.389	.	voice	1G 1b 1dd 1ff
.	.	Way	.	.	.	.	.	.
.	.	down	.	.	.	.	.	.
.	.	in	.	.	.	.	.	.
.	.	Ko	.	(C	.	.	.	.
.	.	_	.	.	.	.	.	.
.	.	ko-	.	c	.	.	.	.
.	.	-mo	A-	C)	.	.	.	.
=56	=56	=56	=56	=56	=56	=56	=56	=56
*>Letter>C	*>Letter>C	*>Letter>C	*>Letter>C	*>Letter>C	*>Letter>C	*>Letter>C	*>Letter>C	*>Letter>C
*>Label>Chorus	*>Label>Chorus	*>Label>Chorus	*>Label>Chorus	*>Label>Chorus	*>Label>Chorus	*>Label>Chorus	*>Label>Chorus	*>Label>Chorus
1I	C:maj	_	-ru-	.	114.457	newline	voice	1C 1e 1g
.	.	.	-ba,	a	.	.	.	.
.	.	.	.	.	.	.	.	.
.	.	.	Ja-	.	.	.	.	.
.	.	.	-mai-	(A	.	.	.	.
.	.	.	-ca,	a)	.	.	.	.
.	.	.	.	.	.	.	.	.
.	.	.	ooh	.	.	.	.	.
=57	=57	=57	=57	=57	=57	=57	=57	=57
1I	C:maj	.	_	.	116.526	.	voice	1C 1e 1g
.	.	.	I	.	.	.	.	.
.	.	.	want	.	.	.	.	.
.	.	.	to	.	.	.	.	.
.	.	.	take	(A	.	.	.	.
.	.	.	ya	a)	.	.	.	.
.	.	.	.	.	.	.	.	.
.	.	.	Ber-	.	.	.	.	.
=58	=58	=58	=58	=58	=58	=58	=58	=58
1IV	F:maj	.	-mu-	.	118.595	.	voice	1F 1a 1cc
.	.	.	-da,	.	.	.	.	.
.	.	.	.	.	.	.	.	.
.	.	.	Ba-	.	.	.	.	.
.	.	.	-ha-	(B	.	.	.	.
.	.	.	-ma,	b)	.	.	.	.
.	.	.	.	.	.	.	.	.
.	.	.	come	.	.	.	.	.
=59	=59	=59	=59	=59	=59	=59	=59	=59
1IV	F:maj	.	_	.	120.664	.	voice	1F 1a 1cc
.	.	.	on	.	.	.	.	.
.	.	.	pret-	.	.	.	.	.
.	.	.	-ty	.	.	.	.	.
.	.	.	ma-	(B	.	.	.	.
.	.	.	-ma	b)	.	.	.	.
.	.	.	.	.	.	.	.	.
.	.	.	Key	.	.	.	.	.
=60	=60	=60	=60	=60	=60	=60	=60	=60
1I	C:maj	.	Lar-	.	122.733	newline	voice	1C 1e 1g
.	.	.	-go,	c	.	.	.	.
.	.	.	.	.	.	.	.	.
.	.	.	Mon-	.	.	.	.	.
.	.	.	-te-	(C	.	.	.	.
.	.	.	-go,	c)	.	.	.	.
.	.	Ooh	.	.	.	.	.	.
.	.	.	ba-	.	.	.	.	.
=61	=61	=61	=61	=61	=61	=61	=61	=61
1I	C:maj	_	_	.	124.817	.	voice	1C 1e 1g
.	.	I	-by	.	.	.	.	.
.	.	want	why	.	.	.	.	.
.	.	to	don't	.	.	.	.	.
.	.	take	we	.	.	.	.	.
.	.	you	go,	.	.	.	.	.
.	.	down	.	.	.	.	.	.
.	.	to	.	.	.	.	.	.
=62	=62	=62	=62	=62	=62	=62	=62	=62
1IV	F:maj	Ko-	.	(C	126.9	.	voice	1F 1a 1cc
.	.	-ko-	.	c	.	.	.	.
.	.	-mo	.	C)	.	.	.	.
.	.	_	.	.	.	.	.	.
.	.	_	.	.	.	.	.	.
.	.	.	.	.	.	.	.	.
.	.	.	.	.	.	.	.	.
.	.	we'll	.	.	.	.	.	.
=63	=63	=63	=63	=63	=63	=63	=63	=63
1iv	F:min	get	.	.	128.984	.	voice	1F 1a- 1cc
.	.	there	.	.	.	.	.	.
.	.	fast	.	.	.	.	.	.
.	.	_	.	.	.	.	.	.
.	.	and	.	.	.	.	.	.
.	.	then	.	.	.	.	.	.
.	.	we'll	.	.	.	.	.	.
=64	=64	=64	=64	=64	=64	=64	=64	=64
1I	C:maj	take	.	.	131.068	newline	voice	1C 1e 1g
.	.	it	.	.	.	.	.	.
.	.	slow	.	C	.	.	.	.
.	.	_	.	.	.	.	.	.
.	.	.	.	.	.	.	.	.
=65	=65	=65	=65	=65	=65	=65	=65	=65
1vi	A:min	That's	.	.	133.154	.	voice	1A 1cc 1ee
.	.	where	.	.	.	.	.	.
.	.	_	.	.	.	.	.	.
.	.	we	.	.	.	.	.	.
.	.	_	.	.	.	.	.	.
=66	=66	=66	=66	=66	=66	=66	=66	=66
1ii	D:min	want	.	.	135.24	.	voice	1D 1f 1a
.	.	_	.	.	.	.	.	.
.	.	to	.	.	.	.	.	.
.	.	go,	.	C	.	.	.	.
.	.	_	.	.	.	.	.	.
.	.	_	.	.	.	.	.	.
.	.	.	.	.	.	.	.	.
=67	=67	=67	=67	=67	=67	=67	=67	=67
1V	G:maj	.	.	.	137.325	.	voice	1G 1b 1dd
.	.	way	.	.	.	.	.	.
.	.	down	.	.	.	.	.	.
.	.	in	.	.	.	.	.	.
.	.	Ko-	.	(C	.	.	.	.
.	.	-ko-	.	c	.	.	.	.
.	.	-mo	.	C)	.	.	.	.
.	.	_	.	.	.	.	.	.
=68	=68	=68	=68	=68	=68	=68	=68	=68
*>Letter>A	*>Letter>A	*>Letter>A	*>Letter>A	*>Letter>A	*>Letter>A	*>Letter>A	*>Letter>A	*>Letter>A
*>Label>Interlude	*>Label>Interlude	*>Label>Interlude	*>Label>Interlude	*>Label>Interlude	*>Label>Interlude	*>Label>Interlude	*>Label>Interlude	*>Label>Interlude
1I	C:maj	_	Port	.	139.411	newline	voice	1C 1e 1g
.	.	.	.	.	.	.	.	.
.	.	.	au	.	.	.	.	.
.	.	.	Prince,	H	.	.	.	.
.	.	.	.	.	.	.	.	.
.	.	.	I	.	.	.	.	.
=69	=69	=69	=69	=69	=69	=69	=69	=69
1r	N	.	want	.	141.474	.	voice	1r
.	.	.	to	.	.	.	.	.
.	.	.	catch	.	.	.	.	.
.	.	.	a	.	.	.	.	.
.	.	.	glimpse	H	.	.	.	.
.	.	.	.	.	.	.	.	.
=70	=70	=70	=70	=70	=70	=70	=70	=70
*>Letter>B	*>Letter>B	*>Letter>B	*>Letter>B	*>Letter>B	*>Letter>B	*>Letter>B	*>Letter>B	*>Letter>B
*>Label>Solo	*>Label>Solo	*>Label>Solo	*>Label>Solo	*>Label>Solo	*>Label>Solo	*>Label>Solo	*>Label>Solo	*>Label>Solo
1I	C:maj	.	.	.	143.538	newline	saxophone	1C 1e 1g
=71	=71	=71	=71	=71	=71	=71	=71	=71
1I7	C:maj7	.	.	.	.	.	saxophone	1C 1e 1g 1b
=72	=72	=72	=72	=72	=72	=72	=72	=72
1v7	G:min7	.	.	.	.	.	saxophone	1G 1b- 1dd 1ff
=73	=73	=73	=73	=73	=73	=73	=73	=73
1IV	F:maj	.	.	.	.	.	saxophone	1F 1a 1cc
=74	=74	=74	=74	=74	=74	=74	=74	=74
1iv	F:min	.	.	.	151.81	newline	saxophone	1F 1a- 1cc
=75	=75	=75	=75	=75	=75	=75	=75	=75
1I	C:maj	.	.	.	.	.	saxophone	1C 1e 1g
=76	=76	=76	=76	=76	=76	=76	=76	=76
1II7	D:7	.	.	.	.	.	saxophone	1D 1f# 1a 1cc
=77	=77	=77	=77	=77	=77	=77	=77	=77
1V7	G:7	.	.	.	.	.	saxophone	1G 1b 1dd 1ff
=78	=78	=78	=78	=78	=78	=78	=78	=78
*>Letter>B	*>Letter>B	*>Letter>B	*>Letter>B	*>Letter>B	*>Letter>B	*>Letter>B	*>Letter>B	*>Letter>B
*>Label>Verse	*>Label>Verse	*>Label>Verse	*>Label>Verse	*>Label>Verse	*>Label>Verse	*>Label>Verse	*>Label>Verse	*>Label>Verse
1I	C:maj	.	.	.	160.082	newline	voice	1C 1e 1g
.	.	Ev'-	.	.	.	.	.	.
.	.	-ry	.	.	.	.	.	.
.	.	bo-	.	.	.	.	.	.
.	.	-dy	.	.	.	.	.	.
.	.	knows	.	C	.	.	.	.
=79	=79	=79	=79	=79	=79	=79	=79	=79
1I7	C:maj7	_	.	.	.	.	voice	1C 1e 1g 1b
.	.	_	.	.	.	.	.	.
.	.	_	.	.	.	.	.	.
.	.	_	.	.	.	.	.	.
=80	=80	=80	=80	=80	=80	=80	=80	=80
1v7	G:min7	.	.	.	.	.	voice	1G 1b- 1dd 1ff
.	.	a	.	.	.	.	.	.
.	.	lit-	.	.	.	.	.	.
.	.	-tle	.	.	.	.	.	.
.	.	place	.	.	.	.	.	.
.	.	like	.	.	.	.	.	.
=81	=81	=81	=81	=81	=81	=81	=81	=81
1IV	F:maj	Ko-	.	(C	.	.	voice	1F 1a 1cc
.	.	-ko-	.	c	.	.	.	.
.	.	-mo	.	C)	.	.	.	.
.	.	_	.	.	.	.	.	.
=82	=82	=82	=82	=82	=82	=82	=82	=82
1iv	F:min	.	.	.	168.378	newline	voice	1F 1a- 1cc
.	.	Now	.	.	.	.	.	.
.	.	if	.	.	.	.	.	.
.	.	you	.	.	.	.	.	.
=83	=83	=83	=83	=83	=83	=83	=83	=83
1I	C:maj	want	.	.	.	.	voice	1C 1e 1g
.	.	to	.	.	.	.	.	.
.	.	go	.	C	.	.	.	.
.	.	.	.	.	.	.	.	.
.	.	and	.	.	.	.	.	.
.	.	get	.	.	.	.	.	.
.	.	a-	.	.	.	.	.	.
=84	=84	=84	=84	=84	=84	=84	=84	=84
1II7	D:7	-way	.	.	.	.	voice	1D 1f# 1a 1cc
.	.	from	.	.	.	.	.	.
.	.	it	.	.	.	.	.	.
.	.	all	.	.	.	.	.	.
.	.	_	.	.	.	.	.	.
.	.	.	.	.	.	.	.	.
=85	=85	=85	=85	=85	=85	=85	=85	=85
1V7	G:7	.	.	.	.	.	voice	1G 1b 1dd 1ff
.	.	Go	.	.	.	.	.	.
.	.	down	.	.	.	.	.	.
.	.	to	.	.	.	.	.	.
.	.	Ko	.	(C	.	.	.	.
.	.	_	.	.	.	.	.	.
.	.	ko-	.	c	.	.	.	.
.	.	-mo	A-	C)	.	.	.	.
=86	=86	=86	=86	=86	=86	=86	=86	=86
*>Letter>C	*>Letter>C	*>Letter>C	*>Letter>C	*>Letter>C	*>Letter>C	*>Letter>C	*>Letter>C	*>Letter>C
*>Label>Chorus	*>Label>Chorus	*>Label>Chorus	*>Label>Chorus	*>Label>Chorus	*>Label>Chorus	*>Label>Chorus	*>Label>Chorus	*>Label>Chorus
1I	C:maj	_	-ru-	.	176.618	newline	voice	1C 1e 1g
.	.	.	-ba,	a	.	.	.	.
.	.	.	.	.	.	.	.	.
.	.	.	Ja-	.	.	.	.	.
.	.	.	-mai-	(A	.	.	.	.
.	.	.	-ca,	a)	.	.	.	.
.	.	.	.	.	.	.	.	.
.	.	.	ooh	.	.	.	.	.
=87	=87	=87	=87	=87	=87	=87	=87	=87
1I	C:maj	.	_	.	.	.	voice	1C 1e 1g
.	.	.	I	.	.	.	.	.
.	.	.	want	.	.	.	.	.
.	.	.	to	.	.	.	.	.
.	.	.	take	(A	.	.	.	.
.	.	.	ya	a)	.	.	.	.
.	.	.	.	.	.	.	.	.
.	.	.	Ber-	.	.	.	.	.
=88	=88	=88	=88	=88	=88	=88	=88	=88
1IV	F:maj	.	-mu-	.	.	.	voice	1F 1a 1cc
.	.	.	-da,	.	.	.	.	.
.	.	.	.	.	.	.	.	.
.	.	.	Ba-	.	.	.	.	.
.	.	.	-ha-	(B	.	.	.	.
.	.	.	-ma,	b)	.	.	.	.
.	.	.	.	.	.	.	.	.
.	.	.	come	.	.	.	.	.
=89	=89	=89	=89	=89	=89	=89	=89	=89
1IV	F:maj	.	_	.	.	.	voice	1F 1a 1cc
.	.	.	on	.	.	.	.	.
.	.	.	pret-	.	.	.	.	.
.	.	.	-ty	.	.	.	.	.
.	.	.	ma-	(B	.	.	.	.
.	.	.	-ma	b)	.	.	.	.
.	.	.	.	.	.	.	.	.
.	.	.	Key	.	.	.	.	.
=90	=90	=90	=90	=90	=90	=90	=90	=90
1I	C:maj	.	Lar-	.	184.965	newline	voice	1C 1e 1g
.	.	.	-go,	c	.	.	.	.
.	.	.	.	.	.	.	.	.
.	.	.	Mon-	.	.	.	.	.
.	.	.	-te-	(C	.	.	.	.
.	.	.	-go,	c)	.	.	.	.
.	.	Ooh	.	.	.	.	.	.
.	.	.	ba-	.	.	.	.	.
=91	=91	=91	=91	=91	=91	=91	=91	=91
1I	C:maj	_	_	.	.	.	voice	1C 1e 1g
.	.	I	-by	.	.	.	.	.
.	.	want	why	.	.	.	.	.
.	.	to	don't	.	.	.	.	.
.	.	take	we	(C	.	.	.	.
.	.	you	go,	c)	.	.	.	.
.	.	down	.	.	.	.	.	.
.	.	to	.	.	.	.	.	.
=92	=92	=92	=92	=92	=92	=92	=92	=92
1IV	F:maj	Ko-	.	(C	.	.	voice	1F 1a 1cc
.	.	-ko	.	c	.	.	.	.
.	.	_	.	.	.	.	.	.
.	.	mo	.	C)	.	.	.	.
.	.	_	.	.	.	.	.	.
.	.	.	.	.	.	.	.	.
.	.	.	.	.	.	.	.	.
.	.	we'll	.	.	.	.	.	.
=93	=93	=93	=93	=93	=93	=93	=93	=93
1iv	F:min	get	.	.	.	.	voice	1F 1a- 1cc
.	.	there	.	.	.	.	.	.
.	.	fast	.	.	.	.	.	.
.	.	_	.	.	.	.	.	.
.	.	and	.	.	.	.	.	.
.	.	then	.	.	.	.	.	.
.	.	we'll	.	.	.	.	.	.
=94	=94	=94	=94	=94	=94	=94	=94	=94
1I	C:maj	take	.	.	193.249	newline	voice	1C 1e 1g
.	.	it	.	.	.	.	.	.
.	.	slow	.	C	.	.	.	.
.	.	_	.	.	.	.	.	.
.	.	.	.	.	.	.	.	.
=95	=95	=95	=95	=95	=95	=95	=95	=95
1vi	A:min	That's	.	.	.	.	voice	1A 1cc 1ee
.	.	where	.	.	.	.	.	.
.	.	_	.	.	.	.	.	.
.	.	we	.	.	.	.	.	.
.	.	_	.	.	.	.	.	.
=96	=96	=96	=96	=96	=96	=96	=96	=96
1ii	D:min	want	.	.	.	.	voice	1D 1f 1a
.	.	_	.	.	.	.	.	.
.	.	to	.	.	.	.	.	.
.	.	go,	.	C	.	.	.	.
.	.	_	.	.	.	.	.	.
.	.	_	.	.	.	.	.	.
.	.	.	.	.	.	.	.	.
=97	=97	=97	=97	=97	=97	=97	=97	=97
1V	G:maj	.	.	.	.	.	voice	1G 1b 1dd
.	.	way	.	.	.	.	.	.
.	.	down	.	.	.	.	.	.
.	.	in	.	.	.	.	.	.
.	.	Ko-	.	(C	.	.	.	.
.	.	-ko-	.	c	.	.	.	.
.	.	-mo	.	C)	.	.	.	.
.	.	_	A-	.	.	.	.	.
=98	=98	=98	=98	=98	=98	=98	=98	=98
*>Letter>C	*>Letter>C	*>Letter>C	*>Letter>C	*>Letter>C	*>Letter>C	*>Letter>C	*>Letter>C	*>Letter>C
*>Label>Chorus	*>Label>Chorus	*>Label>Chorus	*>Label>Chorus	*>Label>Chorus	*>Label>Chorus	*>Label>Chorus	*>Label>Chorus	*>Label>Chorus
1I	C:maj	_	-ru-	.	201.53	newline	voice	1C 1e 1g
.	.	.	-ba,	a	.	.	.	.
.	.	.	.	.	.	.	.	.
.	.	.	Ja-	.	.	.	.	.
.	.	.	-mai-	(A	.	.	.	.
.	.	.	-ca,	a)	.	.	.	.
.	.	.	.	.	.	.	.	.
.	.	.	ooh	.	.	.	.	.
=99	=99	=99	=99	=99	=99	=99	=99	=99
1I	C:maj	.	_	.	.	.	voice	1C 1e 1g
.	.	.	I	.	.	.	.	.
.	.	.	want	.	.	.	.	.
.	.	.	to	.	.	.	.	.
.	.	.	take	(A	.	.	.	.
.	.	.	ya	a)	.	.	.	.
.	.	.	.	.	.	.	.	.
.	.	.	Ber-	.	.	.	.	.
=100	=100	=100	=100	=100	=100	=100	=100	=100
1IV	F:maj	.	-mu-	.	.	.	voice	1F 1a 1cc
.	.	.	-da,	a	.	.	.	.
.	.	.	.	.	.	.	.	.
.	.	.	Ba-	.	.	.	.	.
.	.	.	-ha-	(B	.	.	.	.
.	.	.	-ma,	b)	.	.	.	.
.	.	.	.	.	.	.	.	.
.	.	.	come	.	.	.	.	.
=101	=101	=101	=101	=101	=101	=101	=101	=101
1IV	F:maj	.	_	.	.	.	voice	1F 1a 1cc
.	.	.	on	.	.	.	.	.
.	.	.	pret-	.	.	.	.	.
.	.	.	-ty	.	.	.	.	.
.	.	.	ma-	(B	.	.	.	.
.	.	.	-ma	b)	.	.	.	.
.	.	.	.	.	.	.	.	.
.	.	.	Key	.	.	.	.	.
=102	=102	=102	=102	=102	=102	=102	=102	=102
1I	C:maj	.	Lar-	.	205.764	newline	voice	1C 1e 1g
.	.	.	-go,	c	.	.	.	.
.	.	.	.	.	.	.	.	.
.	.	.	Mon-	.	.	.	.	.
.	.	.	-te-	(C	.	.	.	.
.	.	.	-go,	c)	.	.	.	.
.	.	.	.	.	.	.	.	.
.	.	.	ba-	.	.	.	.	.
=103	=103	=103	=103	=103	=103	=103	=103	=103
1I	C:maj	.	_	.	.	.	voice	1C 1e 1g
.	.	.	-by	.	.	.	.	.
.	.	.	why	.	.	.	.	.
.	.	.	don't	.	.	.	.	.
.	.	.	we	(C	.	.	.	.
.	.	.	go,	c)	.	.	.	.
.	.	.	.	.	.	.	.	.
=104	=104	=104	=104	=104	=104	=104	=104	=104
1IV	F:maj	.	.	.	.	.	voice	1F 1a 1cc
=105	=105	=105	=105	=105	=105	=105	=105	=105
1iv	F:min	.	.	.	.	.	voice	1F 1a- 1cc
1r;	N	.	.	.	214.356	.	r	1r;
1r;	N	.	.	.	217.615	.	r	1r;
*-	*-	*-	*-	*-	*-	*-	*-	*-
!!!BillboardChartDate: 1988/09/17
!!!BillboardPeak: 1
!!!BillboardWeeksOnChart: 28
!!!COC: The Beach Boys
"!!!EMD: A lot of stuff marked ""N"" (no-chord) should have (implied) chords in transcription."
!!!ENC: Nathaniel Condit-Schultz
!!!EST: Awating manual error checking and editing.
!!!OTL: Kokomo (from the film Cocktail)
!!!RDF**harte: Chris Harte's syntax, used by MIREX
!!!RDF**harmony: **recip + pitch class of root + harmonic quality
!!!RDF**leadinstrument: original McGill primary instrumentation annotation
!!!RDF**phrase: newline = linebreak in original McGill transcription
!!!RDF**timestamp: McGill audio timestamp in seconds
!!!RDT: 2017/01/12/
!!!SampleActualRank: 58
!!!SampleID#: 0974
!!!SampleTargetRank: 57
!!!MBID: 8ac90f40-98e1-450d-8456-77d46ffd47fe
